X:1
T:Mattheus Le Maistre ~1505 - 1577
T:Aus tiefer Not schrei ich zu Dir
%%score [ 1 2 3 4 ]
L:1/8
Q:1/4=240
M:4/4
K:C
V:1 treble nm="Discantus"
V:2 treble nm="Altus"
V:3 treble nm="Tenor"
V:4 treble nm="Bassus"
V:1
"^C""^:" x8 | B16 x4 | E8 B8 | c8 B8 x4 | G8 A8 |[M:4/2] B8 z4 B4 | c8 d8 | c8 A8 |1 G8 F8 x4 | %9
w: |Aus|tie- fer|Not schrei|ich zu|Dir, Herr|Gott er-|hör mein|Ru- *|
w: |Dein|gnä- dig|O- ren|kehr zu|mir, und|mei- ner|Bitt sie||
 E16 :|2 G8 F8 x4 | E8 z4 A4 || G8 c8 | B8 A4 d8 | c4 B8 A8 | z4 c4 x8 | B8 c8 | d8 G8 x2 | %18
w: fen,|öf- *|fen, denn|so Du|willst das se|* hen an,|was|Sünd und|Un- recht|
w: |||||||||
 B4 c4 A8 x2 | G8 z4 G4 | c8 B8 x4 | A8 E8 | G8 F8 x4 |"^-" x16- x8 | x12 x4 |] %25
w: ist * ge-|tan, wer|kann, Herr|vor Dir|blei- *|ben?||
w: |||||||
V:2
"^C""^:" x8 | E12 G8 | G4 E4 E4 C2 D2 | E2 F2 G6 FE D4 x4 | G8 ^F4 x4 |[M:4/2] G8 z4 G4 | A8 F8 | %7
w: |Aus tie|fer Not schrei ich *||* zu|Dir, Herr|Gott er-|
w: |Dein gnä|dig O- ren kehr *||* zu|mir und|mei- ner|
 G4 E4 F4 D4 |1 E6 D2 C4 D4 x4 | B,8 C8 :|2 E6 D2 C4 D4 x4 | B,8 C8 || z4 E4 E4 E4 | D6 E2 F8 x4 | %14
w: hör * * mein|Ru * * *|* fen.|öf * * *|* fen,|denn so Du|willst * *|
w: Bitt * * sie|||||||
 E8 G6 F2 x4 | E8 F4 G4 | G8 G8 | G4 D4 E2 F2 G6 | F2 E8 D4 E4 | E8 G4 x4 | F4 E8 D8 | C12 B,4 | %22
w: das se- *|hen an, was|Sünd und|un- recht ist * *|* * ge- tan,|wer kann,|Herr, vor Dir|blei- ben,|
w: ||||||||
 E4 D6 C2 B,8 | A,4 C8 B,2 A,2 x8 |"^-" x8 x8 |] %25
w: wer kann, Herr, vor|Dir blei- * *||
w: |||
V:3
"^C""^:" x8 | B,8 E,4 B,4 x4 | C4 B,4 G,8 | A,8 B,8 x4 | z4 B,4 C8 |[M:4/2][K:treble-8] d16 | %6
w: |Aus tie- fer|Not schrei ich|zu Dir,|Herr Gott|er-|
w: |Dein gnä- dig|O- ren kehr|zu mir,|und mei-|ner|
 c8 A8 | G8 F8 |1 E8 F4 A8 | ^G4 A8 x4 :|2 E8 F4 A8 | ^G4 A8 z4 || G4 G4 A4 B4 | %13
w: hör mein|Ru- *|fen, mein Ru-|* fen.|fen, sie öf-|* fen.|denn so Du willst|
w: Bitt sie|öf- *||||||
 d6 c2 A2 B2 c2 d2 x4 | e6 d2 d8 x4 | ^c4 d4 e4 x4 | e8 e8 | d4 g6 f2 e4 x2 | d4 c8 B2 A2 x2 | %19
w: das * * * * *|se- * *|hen an, was|Sünd und|Un- recht * *|ist ge- * *|
w: ||||||
 B4 G4 c4 B4 | A4 E4 G8 x4 | F4 E8 A4 | G4 E4 F4 A8 | ^G4 A16 x4 |"^-" x8 x8 |] %25
w: tan, wer kann, Herr,|vor Dir blei-|* ben, wer|kann, Herr vor Dir|* blei-||
w: ||||||
V:4
"^E""^:" x8 |"^Ø" x16- x4 | x12 x4 | A,,8 E,4 G,8 | E,4 A,4 A,4 x4 |[M:4/2] G,16 | z8 D,8 | %7
w: |Aus||tie- fer Not|schrei ich zu|Dir,|Herr|
w: |Dein||gnä- dig O-|ren kehr zu|mir|und|
 E,4 C,4 D,8 |1 G,8 A,4 D,4 x4 | E,8 A,,8 :|2 G,8 A,4 D,4 x4 | E,8 A,,8 || z4 C,4 C,4 C,4 | %13
w: Gott er- höhr|mein Ru- *|* fen.|sie öf- *|* fen.|denn so Du|
w: mei- ner Bitt||||||
 G,8 D,8 x4 | A,8 G,8 x4 | A,8 D,4 C,4 | E,8 C,8 | G,8 E,6 F,2 x2 | G,4 A,4 F,8 x2 | E,16 | %20
w: willst das|se- hen|* an, was|Sünd und|Un- recht *|* ist ge-|tan,|
w: |||||||
 z4 A,,4 G,,2 A,,2 B,,2 C,2 x4 | D,4 A,,4 A,,2 B,,2 C,2 D,2 | E,4 C,4 D,8 x4 | E,8 A,,16 | %24
w: wer kann, * * *|* Herr vor * * *|* Dir blei-|* ben?|
w: ||||
"^-" x8 x8 |] %25
w: |
w: |

